!!!!SEGMENT: pl-wn--mus-iii-123-982--011_wieniawski-henryk--l-ecole-moderne-etudes-caprices-pour-violon-seul-op-10-extrait-des-cadences-pour-le-concerto-de-beethoven.krn
!!!cenid: 18xx:3824
!!!COM: Wieniawski, Henryk
!!!COM-rismID: pe137176
!!!CDT: 1835/07/10-1880/03/31
!!!CNT:
!!!GTL: L'école moderne.Etudes-caprices pour violon seul op. 10
!!!OTL: Extrait des Cadences pour le Concerto de Beethoven
!!!PDT:
!!!AGN:
!!!SMS-siglum: PL-Wn
!!!SMS-shelfmark: Mus.III.123.982
!!!SMS-shelfwork: 011 G
!!!SMS-variant:
!!!SMS-altvar:
!!!NIFC-rismSourceID:
!!!NIFC-islandoraID:
!!!URL-pdf-islandora:
!!!URL-scan: https://polona.pl/item/l-ecole-moderne-etudes-caprices-pour-violon-seul-op-10,MTE2OTgzMTMy/4 @EN{Scan on Polona} @PL{Skany w portalu Polona}
!!!ONB-nifc: UWAGA: jedna pięciolinia na skanie 28
!!!AIN: 2 violn
!!!key: G
**kern	**fing	**kern	**fing
*part2	*	*part1	*
*staff2	*	*staff1	*
*I"[Violino II]	*	*I"[Violino I]	*
*mI"Violino II	*	*mI"Violino I	*
*I'	*	*I'	*
*mI'vn II	*	*mI'vn I	*
*Ivioln	*	*Ivioln	*
*ICstr	*	*ICstr	*
*clefG2	*	*clefG2	*
*k[f#c#]	*	*k[f#c#]	*
*G:	*	*G:	*
*M4/4	*	*M4/4	*
*met(c)	*	*met(c)	*
*mmet(c)	*	*mmet(c)	*
=1	=1	=1	=1
1r	.	[>1aT	.
=2	=2	=2	=2
*	*below	*	*below
!LO:TX:a:Bi:t=Sul G	!	!	!
4f#/	3	1aT_>	2_ 1_
4g/	4	.	.
4a/o<	.	.	3_ 4_
*	*above	*	*
(8b\L	1	.	.
8cc#\J)	1	.	.
=3	=3	=3	=3
2dd\	1	1aT_>	3_ 2_
2a/o	.	.	.
=4	=4	=4	=4
*	*below	*	*
!LO:MO:mod=!LO&colon;TX&colon;a&colon;Bi&colon;t=Sul G	!	!	!
!LO:TX:a:Bi:t=Sul G_:dur=11q:ext=ud:problem:text with extention lines	!	!	!
4g/	4	1aT_>	2_ 1_
4f#/	3	.	.
4e/	2	.	3 1
8f#/L	3	.	2_ 1_
8d'/J	.	.	.
=5	=5	=5	=5
2e/	2	1aT_>	3 1
2A/	.	.	4 3
=6	=6	=6	=6
4f#/	3	1aT_>	2_ 1_
4g/	4	.	.
4a/o<	.	.	4_ 3_
*	*above	*	*
(8b\L	1	.	.
8cc#\J)	1	.	.
=7	=7	=7	=7
2dd\	1	1aT_>	3 2
2a/o	.	.	2 1
=8	=8	=8	=8
[2ff#\	3_	1aT_>	2_ 1_
8ff#\L]	.	.	.
8dd\	1	.	3_ 2_
8a\	o	.	.
8f#\J	3	.	2 1
=9	=9	=9	=9
*	*below	*	*
!LO:MO:mod=!LO&colon;TX&colon;a&colon;Bi&colon;t=Sul G	!	!	!
!LO:TX:a:Bi:t=Sul G_:dur=4qe:ext=ud:problem:text with extention lines	!	!	!
4a/	4	1aT]	2_ 1_
4g#X/	4	.	.
4gn/	4	.	.
!LO:TX:a:t=etc.	!	!LO:TX:a:t=etc.	!
4e/	2	.	3 1
==	==	==	==
*-	*-	*-	*-
!!!system-decoration: {(s1,s2)}
!!!RDF**kern: > = above
!!!RDF**kern: < = below
!!!filter-modern: modori -m
!!!ENC: Marta Opryszak
!!!END: 2022-05-09
!!!ENC: Marta Lawrence
!!!END: 2022-05-19
!!!ENC-modern: Leszek Kubiak
!!!END-modern: 2022-07-19
